brandFactory_export/2.Regular/PC_2Regular.svg

<?xml version="1.0" encoding="UTF-8"?>
<svg width="24px" height="24px" viewBox="0 0 24 24" version="1.1" xmlns="http://www.w3.org/2000/svg" xmlns:xlink="http://www.w3.org/1999/xlink">
    <title>2.Regular/PC_2Regular</title>
    <g id="Symbols" stroke="none" stroke-width="1" fill="none" fill-rule="evenodd">
        <g id="2.Regular/PC_2Regular" fill="#5CB615" fill-rule="nonzero">
            <path d="M14.0504202,5.01008403 C15.0218487,5.01008403 15.7815126,5.2789916 16.302521,5.81008403 C16.810084,6.32436975 17.0655462,7.05714286 17.0655462,7.98823529 L17.0655462,13.1243697 C17.0655462,15.0302521 15.9663866,16.1260504 14.0504202,16.1260504 L11.4062521,16.127084 L12.0742521,16.817084 L16.4201681,16.8151261 C16.7831933,16.8151261 17.0789916,17.1109244 17.0789916,17.4739496 C17.0789916,17.8369748 16.7831933,18.1327731 16.4201681,18.1327731 L0.689075631,18.1394958 C0.32605042,18.1394958 0.0302521011,17.8436975 0.0302521011,17.4806723 C0.0302521011,17.1176471 0.32605042,16.8218487 0.689075631,16.8218487 L4.9322521,16.819084 L5.5902521,16.130084 L3.05882353,16.1327731 C1.14285714,16.1327731 0.0436974793,15.0403361 0.0436974793,13.1310924 L0.0436974793,7.99495798 C0.0436974793,7.06386555 0.299159664,6.33109244 0.806722689,5.81680672 C1.32773109,5.28571429 2.08739496,5.01680672 3.05882353,5.01680672 L14.0504202,5.01008403 Z M21.8722689,5.01680672 C22.3932773,5.01680672 23.610084,5.25210084 23.610084,7.43697479 L23.6134454,15.692437 C23.6134454,17.8773109 22.3966387,18.112605 21.8756303,18.112605 L19.4789916,18.112605 C18.9109244,18.112605 18.4336134,17.8537815 18.1344538,17.3798319 C17.8789916,16.9731092 17.7546218,16.4218487 17.7546218,15.692437 L17.7478992,7.43697479 C17.7478992,6.70756303 17.8722689,6.15630252 18.1310924,5.74957983 C18.4302521,5.2789916 18.907563,5.01680672 19.4756303,5.01680672 L21.8722689,5.01680672 Z M19.4756303,6.2907563 C19.3243697,6.2907563 19.2638655,6.33781513 19.210084,6.42857143 C19.1394958,6.5394958 19.0252101,6.81512605 19.0252101,7.43697479 L19.0285714,15.692437 C19.0285714,16.3142857 19.1428571,16.589916 19.2134454,16.7008403 C19.2705882,16.7915966 19.3277311,16.8386555 19.4789916,16.8386555 L21.8756303,16.8386555 C22.0302521,16.8386555 22.0907563,16.7882353 22.1512605,16.697479 C22.2218487,16.5865546 22.3394958,16.3109244 22.3394958,15.6957983 L22.3361345,7.44033613 C22.3361345,6.82184874 22.2184874,6.54621849 22.1478992,6.43529412 C22.0907563,6.34453782 22.0268908,6.29411765 21.8722689,6.29411765 L19.4756303,6.29411765 L19.4756303,6.2907563 Z M9.5722521,16.128084 L7.4132521,16.129084 L6.7542521,16.819084 L10.2412521,16.817084 L9.5722521,16.128084 Z M14.0504202,6.30084034 L3.05882353,6.30756303 C1.8487395,6.30756303 1.33445378,6.81176471 1.33445378,7.99495798 L1.33445378,13.1310924 C1.33445378,14.3310924 1.85210084,14.8420168 3.05882353,14.8420168 L14.0504202,14.8352941 C15.2605042,14.8352941 15.7747899,14.3243697 15.7747899,13.1243697 L15.7747899,7.98823529 C15.7747899,6.80504202 15.2605042,6.30084034 14.0504202,6.30084034 Z" id="PC_2Regular"></path>
        </g>
    </g>
</svg>

<svg width="24" height="24" viewBox="0 0 24 24" xmlns="http://www.w3.org/2000/svg"><path d="M14.05 5.01c.972 0 1.732.269 2.253.8.507.514.763 1.247.763 2.178v5.136c0 1.906-1.1 3.002-3.016 3.002l-2.644.001.668.69 4.346-.002a.66.66 0 010 1.318l-15.73.006a.66.66 0 010-1.317l4.242-.003.658-.689-2.531.003c-1.916 0-3.015-1.093-3.015-3.002V7.995c0-.931.255-1.664.763-2.178.52-.531 1.28-.8 2.252-.8L14.05 5.01zm7.822.007c.521 0 1.738.235 1.738 2.42l.003 8.255c0 2.185-1.216 2.42-1.737 2.42h-2.397a1.537 1.537 0 01-1.345-.732c-.255-.407-.38-.958-.38-1.688l-.006-8.255c0-.73.124-1.28.383-1.687.3-.471.777-.733 1.345-.733h2.396zM19.476 6.29c-.152 0-.212.047-.266.138-.07.11-.185.386-.185 1.008l.004 8.255c0 .622.114.898.184 1.009.058.09.115.138.266.138h2.397c.154 0 .215-.05.275-.142.07-.11.188-.386.188-1.001l-.003-8.256c0-.618-.118-.894-.188-1.005-.057-.09-.121-.14-.276-.14h-2.396V6.29zm-9.904 9.837l-2.159.001-.659.69 3.487-.002-.669-.689zm4.478-9.827L3.06 6.308c-1.21 0-1.725.504-1.725 1.687v5.136c0 1.2.518 1.711 1.725 1.711l10.991-.007c1.21 0 1.725-.51 1.725-1.71V7.987c0-1.183-.514-1.687-1.725-1.687z" fill="#5CB615" fill-rule="nonzero"/></svg>
